!!!!SEGMENT: pl-cz--iii-370--001-005_krogulski-jozef-wladyslaw--msza-c-offertorium.krn
!!!cenid: 18xx:942
!!!COM: Krogulski, Józef Władysław
!!!COM-rismID: pe30001797
!!!CDT: 1815/10/04-1842/01/09
!!!CNT: Polish
!!!OPR: Msza C
!!!OTL: Offertorium
!!!OMV: 005
!!!PDT:
!!!AGN: Sacred; Mass
!!!SMS-siglum: PL-CZ
!!!SMS-shelfmark: III-370
!!!SMS-shelfwork: 001-005 M
!!!SMS-variant:
!!!SMS-altvar:
!!!NIFC-rismSourceID: 300000646
!!!NIFC-islandoraID: pl-cz:38094
!!!URL-pdf-islandora: https://repozytorium.nifc.pl/islandora/object/pl-cz%3A38094/datastream/PDF/view
!!!URL-scan:
!!!ONB-nifc: UWAGA: części Mszy: Kyrie, Gloria, Andante przed Ewangelią, Credo, Offertorium, Sanctus, Benedictus, Agnus, Na Benedykcyią
!!!AIN: 1 bass 1 organ 2 vox
!!!key: G
!!!OMD:
!!!OMD-mod: Allegro
**kern	**kern	**dynam	**mod-dynam	**kern	**text	**mod-text	**dynam	**mod-dynam	**kern	**text	**mod-text	**dynam	**mod-dynam	**kern	**text	**mod-text	**dynam	**mod-dynam
*	*	*	*	*group1	*	*	*	*	*group1	*	*	*	*	*group1	*	*	*	*
*part4	*part4	*part4	*part4	*part3	*part3	*part3	*part3	*part3	*part2	*part2	*part2	*part2	*part2	*part1	*part1	*part1	*part1	*part1
*staff5	*staff4	*	*	*staff3	*staff3	*staff3	*	*	*staff2	*staff2	*staff2	*	*	*staff1	*staff1	*staff1	*	*
*I"Organ	*I"Organ	*	*	*I"Bas	*	*	*	*	*I"Spiew Drugi	*	*	*	*	*I"Spiew Pierwszy	*	*	*	*
*I'org	*I'org	*	*	*I'B	*	*	*	*	*I'V 2	*	*	*	*	*I'V 1	*	*	*	*
*Iorgan	*Iorgan	*	*	*Ibass	*	*	*	*	*Ivox	*	*	*	*	*Ivox	*	*	*	*
*ICklav	*ICklav	*	*	*ICvox	*	*	*	*	*ICvox	*	*	*	*	*ICvox	*	*	*	*
*IGacmp	*IGacmp	*	*	*IGcoro	*	*	*	*	*IGcoro	*	*	*	*	*IGcoro	*	*	*	*
*clefF4	*clefG2	*	*	*clefF4	*	*	*	*	*clefG2	*	*	*	*	*clefG2	*	*	*	*
*k[f#]	*k[f#]	*	*	*k[f#]	*	*	*	*	*k[f#]	*	*	*	*	*k[f#]	*	*	*	*
*G:	*G:	*	*	*G:	*	*	*	*	*G:	*	*	*	*	*G:	*	*	*	*
*M3/4	*M3/4	*	*	*M3/4	*	*	*	*	*M3/4	*	*	*	*	*M3/4	*	*	*	*
=	=	=	=	=	=	=	=	=	=	=	=	=	=	=	=	=	=	=
*all\right	*all\right	*	*	*all\right	*	*	*	*	*all\right	*	*	*	*	*all\right	*	*	*	*
!	!LO:TX:a:B:t=allegro:mod=	!	!	!LO:TX:a:B:t=allegro:mod=	!	!	!	!	!LO:TX:a:B:t=allegro:mod=	!	!	!	!	!	!	!	!	!
!	!	!	!	!LO:MO:mod=8r	!	!	!	!	!	!	!	!	!	!	!	!	!	!
4ryy	(>8dd\L	.	.	4r	.	.	.	.	8r	.	.	.	.	8r	.	.	.	.
!	!	!	!	!LO:MO:null:mod=4r	!	!	!	!	!	!	!	!	!	!	!	!	!	!
.	8gg\	.	.	.	.	.	.	.	4r	.	.	.	.	4r	.	.	.	.
!	!	!	!	!LO:MO:mod=.	!	!	!	!	!	!	!	!	!	!	!	!	!	!
8ryy	8aa\J)	.	.	8r	.	.	.	.	.	.	.	.	.	.	.	.	.	.
=1	=1	=1	=1	=1	=1	=1	=1	=1	=1	=1	=1	=1	=1	=1	=1	=1	=1	=1
*2\right	*2\right	*	*	*	*	*	*	*	*	*	*	*	*	*	*	*	*	*
*tremolo	*tremolo	*	*	*	*	*	*	*	*	*	*	*	*	*	*	*	*	*
!	!	!	!	!LO:TX:a:t=23:mod=	!	!	!	!	!LO:TX:a:t=23:mod=	!	!	!	!	!LO:TX:a:t=3:mod=	!	!	!	!
8BL 8G\	4.bb\	.	.	0.r	.	.	.	.	0.r	.	.	.	.	1.r	.	.	.	.
8d\	.	.	.	.	.	.	.	.	.	.	.	.	.	.	.	.	.	.
8B 8G\	.	.	.	.	.	.	.	.	.	.	.	.	.	.	.	.	.	.
8d\J	(>8bb\L	.	.	.	.	.	.	.	.	.	.	.	.	.	.	.	.	.
*Xtremolo	*Xtremolo	*	*	*	*	*	*	*	*	*	*	*	*	*	*	*	*	*
8cL 8A\	8ccc\	.	.	.	.	.	.	.	.	.	.	.	.	.	.	.	.	.
8d\J	8ff#\J)	.	.	.	.	.	.	.	.	.	.	.	.	.	.	.	.	.
=2	=2	=2	=2	=2	=2	=2	=2	=2	=2	=2	=2	=2	=2	=2	=2	=2	=2	=2
*clefG2	*	*	*	*	*	*	*	*	*	*	*	*	*	*	*	*	*	*
*tremolo	*	*	*	*	*	*	*	*	*	*	*	*	*	*	*	*	*	*
8dL 8B/	8gg\L	.	.	.	.	.	.	.	.	.	.	.	.	.	.	.	.	.
8g/	8aa\	.	.	.	.	.	.	.	.	.	.	.	.	.	.	.	.	.
8d 8B/	8bb\	.	.	.	.	.	.	.	.	.	.	.	.	.	.	.	.	.
8g/J	8ff#\	.	.	.	.	.	.	.	.	.	.	.	.	.	.	.	.	.
*Xtremolo	*	*	*	*	*	*	*	*	*	*	*	*	*	*	*	*	*	*
.	8qaa/	.	.	.	.	.	.	.	.	.	.	.	.	.	.	.	.	.
8eL 8c/	8gg\	.	.	.	.	.	.	.	.	.	.	.	.	.	.	.	.	.
8g/J	8ee\J	.	.	.	.	.	.	.	.	.	.	.	.	.	.	.	.	.
=3	=3	=3	=3	=3	=3	=3	=3	=3	=3	=3	=3	=3	=3	=3	=3	=3	=3	=3
*^	*	*	*	*	*	*	*	*	*	*	*	*	*	*	*	*	*	*
(<8dL 8B/	2ryyyy	(>8ee\L	.	.	.	.	.	.	.	.	.	.	.	.	2.r	.	.	.	.
8g/J)	.	8dd\	.	.	.	.	.	.	.	.	.	.	.	.	.	.	.	.	.
*clefF4	*	*	*	*	*	*	*	*	*	*	*	*	*	*	*	*	*	*	*
(>8AL 8F#\	.	8cc\	.	.	.	.	.	.	.	.	.	.	.	.	.	.	.	.	.
8BJ 8G\)	.	8b\J	.	.	.	.	.	.	.	.	.	.	.	.	.	.	.	.	.
8E/L	4C\	16a\LL	.	.	.	.	.	.	.	.	.	.	.	.	.	.	.	.	.
.	.	16b\	.	.	.	.	.	.	.	.	.	.	.	.	.	.	.	.	.
8A/J	.	16cc\	.	.	.	.	.	.	.	.	.	.	.	.	.	.	.	.	.
.	.	16ee\JJ)	.	.	.	.	.	.	.	.	.	.	.	.	.	.	.	.	.
=4	=4	=4	=4	=4	=4	=4	=4	=4	=4	=4	=4	=4	=4	=4	=4	=4	=4	=4	=4
!	!	!	!	!	!	!	!	!	!	!	!	!	!	!	!LO:TX:a:i:t=ſolo Dolc:mod=	!	!	!	!
8G/L	4D\	8.g/L	.	.	.	.	.	.	.	.	.	.	.	.	4r	.	.	.	.
8B/J	.	.	.	.	.	.	.	.	.	.	.	.	.	.	.	.	.	.	.
.	.	32a/LL	.	.	.	.	.	.	.	.	.	.	.	.	.	.	.	.	.
.	.	32g/JJJ	.	.	.	.	.	.	.	.	.	.	.	.	.	.	.	.	.
16A\	16D\	16f#/	.	.	.	.	.	.	.	.	.	.	.	.	4r	.	.	.	.
16r	16ryy	16r	.	.	.	.	.	.	.	.	.	.	.	.	.	.	.	.	.
8r	8ryy	8r	.	.	.	.	.	.	.	.	.	.	.	.	.	.	.	.	.
!	!	!	!	!	!	!	!	!	!	!	!	!	!	!	!LO:MO:mod=!LO&colon;TX&colon;a&colon;i&colon;t=Dolce	!	!	!	!
!	!	!	!	!	!	!	!	!	!	!	!	!	!	!	!null	!	!	!	!
4r	4ryy	4r	.	.	.	.	.	.	.	.	.	.	.	.	8dd\	U	U	.	.
.	.	.	.	.	.	.	.	.	.	.	.	.	.	.	8cc\	nog	nóg	.	.
*v	*v	*	*	*	*	*	*	*	*	*	*	*	*	*	*	*	*	*	*
=5	=5	=5	=5	=5	=5	=5	=5	=5	=5	=5	=5	=5	=5	=5	=5	=5	=5	=5
!	!	!	!	!	!	!	!	!	!	!	!	!	!	!	!	!	!LO:HP:a	!
2.G 2.GG/	(<8bL 8g/	.	.	0.r	.	.	.	.	0.r	.	.	.	.	4b\	ſwię-	świę-	<	<
.	8d/	.	.	.	.	.	.	.	.	.	.	.	.	.	.	.	.	.
.	8cc 8a/	.	.	.	.	.	.	.	.	.	.	.	.	4cc\	-tych	-tych	.	.
.	8d/	.	.	.	.	.	.	.	.	.	.	.	.	.	.	.	.	.
.	8dd 8b/	.	.	.	.	.	.	.	.	.	.	.	.	4dd\	oł-	oł-	[	[
.	8g/J)	.	.	.	.	.	.	.	.	.	.	.	.	.	.	.	.	.
=6	=6	=6	=6	=6	=6	=6	=6	=6	=6	=6	=6	=6	=6	=6	=6	=6	=6	=6
*	*tremolo	*	*	*	*	*	*	*	*	*	*	*	*	*2\right	*	*	*	*
!	!	!	!	!	!	!	!	!	!	!	!	!	!	!LO:TX:t=P:problem:problem=diminuendolike accent	!	!	!	!
2.C 2.CC/	(<8eeL 8cc/	.	.	.	.	.	.	.	.	.	.	.	.	2ee\^>	-ta-	-ta-	.	.
.	8g/	.	.	.	.	.	.	.	.	.	.	.	.	.	.	.	.	.
.	8ee 8cc/	.	.	.	.	.	.	.	.	.	.	.	.	.	.	.	.	.
.	8g/J)	.	.	.	.	.	.	.	.	.	.	.	.	.	.	.	.	.
*	*Xtremolo	*	*	*	*	*	*	*	*	*	*	*	*	*	*	*	*	*
.	8ccL 8a/	.	.	.	.	.	.	.	.	.	.	.	.	4cc\	-rzow	-rzów	.	.
.	8e/J	.	.	.	.	.	.	.	.	.	.	.	.	.	.	.	.	.
!LO:LB:g=original	!LO:LB:g=original	!	!	!	!	!	!	!	!	!	!	!	!	!	!	!	!	!
=7	=7	=7	=7	=7	=7	=7	=7	=7	=7	=7	=7	=7	=7	=7	=7	=7	=7	=7
2.D 2.DD/	(<8bL 8g/	.	.	.	.	.	.	.	.	.	.	.	.	4.b\	twych	Twych	.	.
.	8d/	.	.	.	.	.	.	.	.	.	.	.	.	.	.	.	.	.
.	8b 8g/	.	.	.	.	.	.	.	.	.	.	.	.	.	.	.	.	.
.	8a 8f#/	.	.	.	.	.	.	.	.	.	.	.	.	8a\	u-	u-	.	.
!	!	!	!	!	!	!	!	!	!	!	!	!	!	!LO:TX:t=P:problem:problem=diminuendolike accent	!	!	!	!
.	8dd 8b/	.	.	.	.	.	.	.	.	.	.	.	.	8.dd\^>	-po-	-po-	.	.
.	8ccJ 8a/)	.	.	.	.	.	.	.	.	.	.	.	.	.	.	.	.	.
.	.	.	.	.	.	.	.	.	.	.	.	.	.	16cc\	-ko-	-ko-	.	.
=8	=8	=8	=8	=8	=8	=8	=8	=8	=8	=8	=8	=8	=8	=8	=8	=8	=8	=8
2.G 2.GG/	(<8ccL 8a/	.	.	.	.	.	.	.	.	.	.	.	.	4cc\	-rze-	-rze-	.	.
.	8d/J	.	.	.	.	.	.	.	.	.	.	.	.	.	.	.	.	.
*	*tremolo	*	*	*	*	*	*	*	*	*	*	*	*	*	*	*	*	*
.	8bL 8g/	.	.	.	.	.	.	.	.	.	.	.	.	8b\	-ni	-ni	.	.
!	!	!	!	!	!	!	!	!	!	!	!	!	!	!	!	!	!LO:DY:a:rj:t=fo	!
.	8d/	.	.	.	.	.	.	.	.	.	.	.	.	8r	.	.	f	.
.	8b 8g/	.	.	.	.	.	.	.	.	.	.	.	.	4b\	o-	o-	.	f
.	8d/J)	.	.	.	.	.	.	.	.	.	.	.	.	.	.	.	.	.
*	*Xtremolo	*	*	*	*	*	*	*	*	*	*	*	*	*	*	*	*	*
=9	=9	=9	=9	=9	=9	=9	=9	=9	=9	=9	=9	=9	=9	=9	=9	=9	=9	=9
2.F# 2.FF#/	(<8a/L	.	.	0.r	.	.	.	.	0.r	.	.	.	.	4.a/	-fia-	-fia-	.	.
.	8d/	.	.	.	.	.	.	.	.	.	.	.	.	.	.	.	.	.
.	8a/	.	.	.	.	.	.	.	.	.	.	.	.	.	.	.	.	.
.	8b/	.	.	.	.	.	.	.	.	.	.	.	.	8b/	-ru-	-ru-	.	.
!	!	!	!	!	!	!	!	!	!	!	!	!	!	!LO:LB:g=original	!	!	!	!
.	8cc#X/	.	.	.	.	.	.	.	.	.	.	.	.	8cc\	-iem	-jem	.	.
.	8dd/J)	.	.	.	.	.	.	.	.	.	.	.	.	8dd\	ci	Ci	.	.
=10	=10	=10	=10	=10	=10	=10	=10	=10	=10	=10	=10	=10	=10	=10	=10	=10	=10	=10
2.E 2.EE/	(>8ddL 8g\	.	.	.	.	.	.	.	.	.	.	.	.	4dd\	Bo-	Bo-	.	.
.	8e\	.	.	.	.	.	.	.	.	.	.	.	.	.	.	.	.	.
.	8g\	.	.	.	.	.	.	.	.	.	.	.	.	4g/	-że	-że	.	.
.	8e\	.	.	.	.	.	.	.	.	.	.	.	.	.	.	.	.	.
.	8ee 8g\	.	.	.	.	.	.	.	.	.	.	.	.	8ee\L	dar	dar	.	.
.	8ddJ 8b\)	.	.	.	.	.	.	.	.	.	.	.	.	8dd\J	.	.	.	.
=11	=11	=11	=11	=11	=11	=11	=11	=11	=11	=11	=11	=11	=11	=11	=11	=11	=11	=11
2.A 2.AA\	8cc#XL 8a\	.	.	.	.	.	.	.	.	.	.	.	.	8cc#X\L	chle-	chle-	.	.
.	8b 8g#X\	.	.	.	.	.	.	.	.	.	.	.	.	8b\J	.	.	.	.
.	8cc# 8a\	.	.	.	.	.	.	.	.	.	.	.	.	4cc#\	-ba	-ba	.	.
.	8e\	.	.	.	.	.	.	.	.	.	.	.	.	.	.	.	.	.
.	8ee 8cc#\	.	.	.	.	.	.	.	.	.	.	.	.	4ee\	i	i	.	.
.	8gn\J	.	.	.	.	.	.	.	.	.	.	.	.	.	.	.	.	.
=12	=12	=12	=12	=12	=12	=12	=12	=12	=12	=12	=12	=12	=12	=12	=12	=12	=12	=12
4A 4AA\	8eeL 8cc#X\	.	.	.	.	.	.	.	.	.	.	.	.	4ee\	wi-	wi-	.	.
.	8g\J	.	.	.	.	.	.	.	.	.	.	.	.	.	.	.	.	.
16D\	16dd 16f#\	.	.	.	.	.	.	.	.	.	.	.	.	16dd\	-na	-na	.	.
16r	16r	.	.	.	.	.	.	.	.	.	.	.	.	16r	.	.	.	.
!	!	!	!	!	!	!	!	!	!	!	!	!	!	!LO:TX:a:i:t=con tenerezza	!	!	!	!
8r	8r	.	.	.	.	.	.	.	.	.	.	.	.	8dd\	kto-	któ-	.	.
4r	4r	.	.	.	.	.	.	.	.	.	.	.	.	8ee\	-ry	-ry	.	.
.	.	.	.	.	.	.	.	.	.	.	.	.	.	8dd\	się	się	.	.
!LO:PB:g=original	!LO:PB:g=original	!	!	!	!	!	!	!	!	!	!	!	!	!	!	!	!	!
=13	=13	=13	=13	=13	=13	=13	=13	=13	=13	=13	=13	=13	=13	=13	=13	=13	=13	=13
!LO:SIC:s=[>2.F# [2.DD/	!	!	!	!	!	!	!	!	!	!	!	!	!	!	!	!	!	!
[[>2.F# [[2.DD/	(<8ccnL 8a/	.	.	0.r	.	.	.	.	0.r	.	.	.	.	(>4ccn\	wkrot-	wkrót-	.	.
.	8d/	.	.	.	.	.	.	.	.	.	.	.	.	.	.	.	.	.
.	8a 8f#/	.	.	.	.	.	.	.	.	.	.	.	.	4a\	.	.	.	.
.	8d/	.	.	.	.	.	.	.	.	.	.	.	.	.	.	.	.	.
.	8ee 8cc/	.	.	.	.	.	.	.	.	.	.	.	.	8b\)	.	.	.	.
.	8ddJ 8b/)	.	.	.	.	.	.	.	.	.	.	.	.	8cc\	-ce	-ce	.	.
=14	=14	=14	=14	=14	=14	=14	=14	=14	=14	=14	=14	=14	=14	=14	=14	=14	=14	=14
!LO:TX:t=P:problem:brak taktu	!LO:TX:t=P:problem:brak taktu	!	!	!	!	!	!	!	!	!	!	!	!	!	!	!	!	!
!LO:SIC:s=2.F#_ 2.DD_/	!	!	!	!	!	!	!	!	!	!	!	!	!	!	!	!	!	!
2.ryy	2.ryy	.	.	.	.	.	.	.	.	.	.	.	.	(>4dd\	slo-	sło-	.	.
.	.	.	.	.	.	.	.	.	.	.	.	.	.	4a\)	.	.	.	.
!	!	!	!	!	!	!	!	!	!	!	!	!	!	!LO:LB:g=original	!	!	!	!
.	.	.	.	.	.	.	.	.	.	.	.	.	.	8cc\	-wy	-wy	.	.
.	.	.	.	.	.	.	.	.	.	.	.	.	.	8dd\	ka-	ka-	.	.
=15	=15	=15	=15	=15	=15	=15	=15	=15	=15	=15	=15	=15	=15	=15	=15	=15	=15	=15
!LO:SIC:s=2.F#_ 2.DD_/	!	!	!	!	!	!	!	!	!	!	!	!	!	!	!	!	!	!
2.F#__> 2.DD/__<	(<8ddL 8b/	.	.	.	.	.	.	.	.	.	.	.	.	(>4dd\	-pła-	-pła-	.	.
.	8d/	.	.	.	.	.	.	.	.	.	.	.	.	.	.	.	.	.
.	8a 8f#/	.	.	.	.	.	.	.	.	.	.	.	.	4b\)	.	.	.	.
.	8d/	.	.	.	.	.	.	.	.	.	.	.	.	.	.	.	.	.
.	8b 8g/	.	.	.	.	.	.	.	.	.	.	.	.	8ee\	-na	-na	.	.
.	8ccJ 8a/)	.	.	.	.	.	.	.	.	.	.	.	.	8dd\	za-	za-	.	.
=16	=16	=16	=16	=16	=16	=16	=16	=16	=16	=16	=16	=16	=16	=16	=16	=16	=16	=16
2.F#_> 2.DD/_<	(<8ccL 8a/	.	.	.	.	.	.	.	.	.	.	.	.	4cc\	-mie-	-mie-	.	.
.	8d/	.	.	.	.	.	.	.	.	.	.	.	.	.	.	.	.	.
.	8a 8f#/	.	.	.	.	.	.	.	.	.	.	.	.	4a\	-ni	-ni	.	.
.	8d/	.	.	.	.	.	.	.	.	.	.	.	.	.	.	.	.	.
!	!	!	!	!	!	!	!	!	!	!	!	!	!	!LO:SIC:s=8bL	!	!	!	!
.	8b 8g/	.	.	.	.	.	.	.	.	.	.	.	.	8b\	w praw-	w praw-	.	.
!	!	!	!	!	!	!	!	!	!	!	!	!	!	!LO:SIC:s=8ccJ	!	!	!	!
.	8ccJ 8a/)	.	.	.	.	.	.	.	.	.	.	.	.	8cc\	-dzi	.	.	.
=17	=17	=17	=17	=17	=17	=17	=17	=17	=17	=17	=17	=17	=17	=17	=17	=17	=17	=17
(<2.F#] (>2.DD/]	(<8ddL 8b/	.	.	0.r	.	.	.	.	0.r	.	.	.	.	4dd\	.	-dzi-	.	.
.	8d/J	.	.	.	.	.	.	.	.	.	.	.	.	.	.	.	.	.
*	*tremolo	*	*	*	*	*	*	*	*	*	*	*	*	*	*	*	*	*
.	8bL 8g/	.	.	.	.	.	.	.	.	.	.	.	.	8b\	.	-wą	.	.
.	8d/	.	.	.	.	.	.	.	.	.	.	.	.	8r	.	.	.	.
!	!	!	!	!	!	!	!	!	!	!	!	!	!	!	!	!	!LO:DY:a:rj	!
.	8b 8g/	.	.	.	.	.	.	.	.	.	.	.	.	4b\	w praw-	w praw-	f	f
.	8d/J)	.	.	.	.	.	.	.	.	.	.	.	.	.	.	.	.	.
*	*Xtremolo	*	*	*	*	*	*	*	*	*	*	*	*	*	*	*	*	*
=18	=18	=18	=18	=18	=18	=18	=18	=18	=18	=18	=18	=18	=18	=18	=18	=18	=18	=18
*	*tremolo	*	*	*	*	*	*	*	*	*	*	*	*	*	*	*	*	*
2.G 2.GG/))	(8bL 8g/	.	.	.	.	.	.	.	.	.	.	.	.	4.b\	-dzi-	-dzi-	.	.
.	8d/	.	.	.	.	.	.	.	.	.	.	.	.	.	.	.	.	.
.	8b 8g/	.	.	.	.	.	.	.	.	.	.	.	.	.	.	.	.	.
.	8d/J	.	.	.	.	.	.	.	.	.	.	.	.	8b\	-wę	-wą	.	.
*	*Xtremolo	*	*	*	*	*	*	*	*	*	*	*	*	*	*	*	*	*
!	!LO:SIC:s=8bL 8fn	!	!	!	!	!	!	!	!	!	!	!	!	!	!	!	!	!
.	(8bL 8fn/	.	.	.	.	.	.	.	.	.	.	.	.	8b\	krew	Krew	.	.
!	!LO:SIC:s=8dJ)	!	!	!	!	!	!	!	!	!	!	!	!	!	!	!	!	!
.	8d/J))	.	.	.	.	.	.	.	.	.	.	.	.	8b\	i	i	.	.
=19	=19	=19	=19	=19	=19	=19	=19	=19	=19	=19	=19	=19	=19	=19	=19	=19	=19	=19
*	*tremolo	*	*	*	*	*	*	*	*	*	*	*	*	*	*	*	*	*
2.C 2.CC/	(<8ccL 8g/	.	.	.	.	.	.	.	.	.	.	.	.	2cc\	cia-	Cia-	.	.
.	8e/	.	.	.	.	.	.	.	.	.	.	.	.	.	.	.	.	.
.	8cc 8g/	.	.	.	.	.	.	.	.	.	.	.	.	.	.	.	.	.
!	!LO:SIC:s=8eJ	!	!	!	!	!	!	!	!	!	!	!	!	!	!	!	!	!
.	8e/J)	.	.	.	.	.	.	.	.	.	.	.	.	.	.	.	.	.
*	*Xtremolo	*	*	*	*	*	*	*	*	*	*	*	*	*	*	*	*	*
!	!LO:SIC:s=8eeL 8g	!	!	!	!	!	!	!	!	!	!	!	!	!	!	!	!	!
.	(<8eeL 8g/	.	.	.	.	.	.	.	.	.	.	.	.	4ee\	-ło	-ło	.	.
.	8e/J)	.	.	.	.	.	.	.	.	.	.	.	.	.	.	.	.	.
=20	=20	=20	=20	=20	=20	=20	=20	=20	=20	=20	=20	=20	=20	=20	=20	=20	=20	=20
*	*tremolo	*	*	*	*	*	*	*	*	*	*	*	*	*	*	*	*	*
[>2.D [<2.DD/	(<8ddL 8b/	.	.	.	.	.	.	.	.	.	.	.	.	4dd\	Bo-	Bo-	.	.
.	8d/	.	.	.	.	.	.	.	.	.	.	.	.	.	.	.	.	.
.	8dd 8b/	.	.	.	.	.	.	.	.	.	.	.	.	4dd\	-ga	-ga	.	.
.	8d/J	.	.	.	.	.	.	.	.	.	.	.	.	.	.	.	.	.
*	*Xtremolo	*	*	*	*	*	*	*	*	*	*	*	*	*	*	*	*	*
!	!	!	!	!	!	!	!	!	!	!	!	!	!	!LO:LB:g=original	!	!	!	!
.	8ccL 8a/	.	.	.	.	.	.	.	.	.	.	.	.	8cc\	Twe-	Twe-	.	.
.	8ddJ 8b/)	.	.	.	.	.	.	.	.	.	.	.	.	8dd\	-go	-go	.	.
=21	=21	=21	=21	=21	=21	=21	=21	=21	=21	=21	=21	=21	=21	=21	=21	=21	=21	=21
4D] 4DD/]	(<8ccL 8a/	.	.	1.r	.	.	.	.	1.r	.	.	.	.	4cc\	ſy-	Sy-	.	.
.	8f#/J	.	.	.	.	.	.	.	.	.	.	.	.	.	.	.	.	.
*	*tremolo	*	*	*	*	*	*	*	*	*	*	*	*	*	*	*	*	*
4G 4GG/	8bL 8g/	.	.	.	.	.	.	.	.	.	.	.	.	8b\	-na	-na	.	.
.	8d/	.	.	.	.	.	.	.	.	.	.	.	.	8r	.	.	.	.
4r	8b 8g/	.	.	.	.	.	.	.	.	.	.	.	.	4b\	w praw-	w praw-	.	.
.	8d/J)	.	.	.	.	.	.	.	.	.	.	.	.	.	.	.	.	.
*	*Xtremolo	*	*	*	*	*	*	*	*	*	*	*	*	*	*	*	*	*
!LO:LB:g=original	!LO:LB:g=original	!	!	!	!	!	!	!	!	!	!	!	!	!	!	!	!	!
=22	=22	=22	=22	=22	=22	=22	=22	=22	=22	=22	=22	=22	=22	=22	=22	=22	=22	=22
*	*tremolo	*	*	*	*	*	*	*	*	*	*	*	*	*	*	*	*	*
2.G 2.GG\	(<8bL 8g/	.	.	.	.	.	.	.	.	.	.	.	.	4.b\	-dzi-	-dzi-	.	.
.	8d/	.	.	.	.	.	.	.	.	.	.	.	.	.	.	.	.	.
.	8b 8g/	.	.	.	.	.	.	.	.	.	.	.	.	.	.	.	.	.
.	8d/J	.	.	.	.	.	.	.	.	.	.	.	.	8b\	-wą	-wą	.	.
*	*Xtremolo	*	*	*	*	*	*	*	*	*	*	*	*	*	*	*	*	*
.	8bL 8fn/	.	.	.	.	.	.	.	.	.	.	.	.	8b\	krew	Krew	.	.
.	8d/J)	.	.	.	.	.	.	.	.	.	.	.	.	8b\	i	i	.	.
=23	=23	=23	=23	=23	=23	=23	=23	=23	=23	=23	=23	=23	=23	=23	=23	=23	=23	=23
*	*tremolo	*	*	*	*	*	*	*	*	*	*	*	*	*	*	*	*	*
2E 2EE/	(<8ccL 8g/	.	.	2.r	.	.	.	.	2.r	.	.	.	.	2cc\	cia-	Cia-	.	.
.	8e/	.	.	.	.	.	.	.	.	.	.	.	.	.	.	.	.	.
.	8cc 8g/	.	.	.	.	.	.	.	.	.	.	.	.	.	.	.	.	.
.	8e/J	.	.	.	.	.	.	.	.	.	.	.	.	.	.	.	.	.
*	*Xtremolo	*	*	*	*	*	*	*	*	*	*	*	*	*	*	*	*	*
4C 4CC/	8eeL 8g/	.	.	.	.	.	.	.	.	.	.	.	.	4ee\	-ło	-ło	.	.
.	8e/J)	.	.	.	.	.	.	.	.	.	.	.	.	.	.	.	.	.
=24	=24	=24	=24	=24	=24	=24	=24	=24	=24	=24	=24	=24	=24	=24	=24	=24	=24	=24
*	*tremolo	*	*	*	*	*	*	*	*	*	*	*	*	*	*	*	*	*
!	!LO:SIC:s=(8ddL 8b	!	!	!LO:TX:t=P:problem=brak zapisanej pauzy	!	!	!	!	!LO:TX:t=P:problem=brak zapisanej pauzy	!	!	!	!	!	!	!	!	!
[>2.D [<2.DD/	8ddL 8b/	.	.	2.ryy	.	.	.	.	2.ryy	.	.	.	.	4dd\	Bo-	Bo-	.	.
.	8d/	.	.	.	.	.	.	.	.	.	.	.	.	.	.	.	.	.
.	8dd 8b/	.	.	.	.	.	.	.	.	.	.	.	.	4dd\	-ga	-ga	.	.
.	8d/J	.	.	.	.	.	.	.	.	.	.	.	.	.	.	.	.	.
*	*Xtremolo	*	*	*	*	*	*	*	*	*	*	*	*	*	*	*	*	*
.	8ccL 8a/	.	.	.	.	.	.	.	.	.	.	.	.	8cc\	Twe-	Twe-	.	.
!	!LO:SIC:s=8aJ 8f#)	!	!	!	!	!	!	!	!	!	!	!	!	!	!	!	!	!
.	8aJ 8f#/	.	.	.	.	.	.	.	.	.	.	.	.	8a/	-go	-go	.	.
=25	=25	=25	=25	=25	=25	=25	=25	=25	=25	=25	=25	=25	=25	=25	=25	=25	=25	=25
4D] 4DD/]	8aL 8f#/	.	.	4r	.	.	.	.	4r	.	.	.	.	4a/	ſy-	Sy-	.	.
.	8c/J	.	.	.	.	.	.	.	.	.	.	.	.	.	.	.	.	.
4G 4GG\	8g 8B/	.	.	4r	.	.	.	.	4r	.	.	.	.	8g/	-na	-na	.	.
.	8r	.	.	.	.	.	.	.	.	.	.	.	.	8r	.	.	.	.
!	!	!	!	!	!	!	!LO:DY:a:rj:t=for	!LO:DY:a:rj:t=for	!	!	!	!LO:DY:a:rj	!LO:DY:a:rj	!LO:TX:a:i:t=Coro	!	!	!	!LO:DY:ed=brack
4G 4GG\	8ddL 8b\	f	f	4G\	Z glę-	Z glę-	f	f	8b/L	Z glę-	Z glę-	f	f	8dd\L	Z głę-	Z głę-	.	f
.	8ccJ 8a\	.	.	.	.	.	.	.	8a/J	.	.	.	.	8cc\J	.	.	.	.
=26	=26	=26	=26	=26	=26	=26	=26	=26	=26	=26	=26	=26	=26	=26	=26	=26	=26	=26
2.G 2.GG\	4.b 4.g\	.	.	4G\	-bo-	-bo-	.	.	4.g/	-bo-	-bo-	.	.	4.b\	-bo-	-bo-	.	.
.	.	.	.	4G\	-kiem	-kiem	.	.	.	.	.	.	.	.	.	.	.	.
.	8cc 8a\	.	.	.	.	.	.	.	8a/	-kiem	-kiem	.	.	8cc\	-kiem	-kiem	.	.
!	!	!	!	!	!	!	!	!	!	!	!	!	!	!LO:LB:g=original	!	!	!	!
.	4dd 4b\	.	.	8G\	ta-	ta-	.	.	8b/	ta-	ta-	.	.	8dd\	ta-	ta-	.	.
.	.	.	.	8G\	-ie-	-je-	.	.	8b/	-ie-	-je-	.	.	8dd\	-ie-	-je-	.	.
=27	=27	=27	=27	=27	=27	=27	=27	=27	=27	=27	=27	=27	=27	=27	=27	=27	=27	=27
2.C 2.CC/	2ee 2cc\	.	.	4C/	-mni-	-mni-	.	.	4cc\	-mni-	-mni-	.	.	4ee\	-mni-	-mni-	.	.
.	.	.	.	4C/	-cę	-cę	.	.	4cc\	-cę	-cę	.	.	4ee\	-cę	-cę	.	.
.	4cc 4a\	.	.	4C/	te	tę	.	.	4a/	tę	tę	.	.	4cc\	tę	tę	.	.
!	!	!	!	!	!	!	!	!	!LO:LB:g=original	!	!	!	!	!	!	!	!	!
=28	=28	=28	=28	=28	=28	=28	=28	=28	=28	=28	=28	=28	=28	=28	=28	=28	=28	=28
[>2.D [<2.DD/	4b 4g/	.	.	2D/	świę-	świę-	.	.	(<4g/	ſwię-	świę-	.	.	(>4b\	ſwię-	świę-	.	.
.	4a 4f#/	.	.	.	.	.	.	.	4f#/)	.	.	.	.	4a\)	.	.	.	.
.	8ddL 8f#\	.	.	8D/	-cim	-cim	.	.	8f#/	-cim	-cim	.	.	8dd\	-cim	-cim	.	.
.	8ccJ 8a\	.	.	8D/	ucz-	ucz-	.	.	8a/	ucz-	ucz-	.	.	8cc\	ucz-	ucz-	.	.
!	!	!	!	!LO:LB:g=original	!	!	!	!	!	!	!	!	!	!	!	!	!	!
=29	=29	=29	=29	=29	=29	=29	=29	=29	=29	=29	=29	=29	=29	=29	=29	=29	=29	=29
4D] 4DD/]	4cc 4a\	.	.	4D\	-cze-	-cze-	.	.	4a/	-cze-	-cze-	.	.	4cc\	-cze-	-cze-	.	.
4G 4GG\	4b 4g\	.	.	8G\	-niem	-niem	.	.	8g/	-niem	-niem	.	.	8b\	-niem	-niem	.	.
.	.	.	.	8r	.	.	.	.	8r	.	.	.	.	8r	.	.	.	.
4G 4GG\	4b 4g\	.	.	4r	.	.	.	.	8g/	któ-	któ-	.	.	8b\	kto-	któ-	.	.
.	.	.	.	.	.	.	.	.	8g/	-ra-	-ra-	.	.	8b\	-ra	-ra	.	.
!LO:LB:g=original	!LO:LB:g=original	!	!	!	!	!	!	!	!	!	!	!	!	!	!	!	!	!
=30	=30	=30	=30	=30	=30	=30	=30	=30	=30	=30	=30	=30	=30	=30	=30	=30	=30	=30
2.D\	4.a 4.f#/	.	.	8D\	kto-	któ-	.	.	(<4.f#/	-w-no	-w-no	.	.	(<4.a/	w no-	w no-	.	.
.	.	.	.	8D\	-ra	-ra	.	.	.	.	.	.	.	.	.	.	.	.
.	.	.	.	4D\	w no-	w no-	.	.	.	.	.	.	.	.	.	.	.	.
.	8aL 8f#\	.	.	.	.	.	.	.	8g/)	.	.	.	.	8b/)	.	.	.	.
.	8cc#X 8e\	.	.	8D\	-wym	-wym	.	.	8e/	-wym	-wym	.	.	8cc#X\	-wym	-wym	.	.
.	8ddJ 8f#\	.	.	8D\	za-	za-	.	.	8f#/	za-	za-	.	.	8dd\	za-	za-	.	.
=31	=31	=31	=31	=31	=31	=31	=31	=31	=31	=31	=31	=31	=31	=31	=31	=31	=31	=31
[>2E\	4cc 4g\	.	.	4E\	-ko-	-ko-	.	.	4g/	-ko-	-ko-	.	.	4b\	-ko-	-ko-	.	.
.	4g\	.	.	4E\	-nie	-nie	.	.	4g/	-nie	-nie	.	.	4g/	-nie	-nie	.	.
8E\L]	8eeL 8g\	.	.	8E\	speł-	speł-	.	.	8g/	ſpeł-	speł-	.	.	8ee\	speł-	speł-	.	.
8G\J	8ddJ 8b\	.	.	8G\	-nia	-nia	.	.	8b/	-nia	-nia	.	.	8dd\	-nia	-nia	.	.
!	!	!	!	!	!	!	!	!	!	!	!	!	!	!LO:LB:g=original	!	!	!	!
=32	=32	=32	=32	=32	=32	=32	=32	=32	=32	=32	=32	=32	=32	=32	=32	=32	=32	=32
*	*	*	*	*2\right	*	*	*	*	*	*	*	*	*	*	*	*	*	*
!	!	!	!	!	!	!	!	!	!LO:SIC:s=(8aL	!	!	!	!	!	!	!	!	!
2A\	8cc#XL 8a\	.	.	2A\	za-	za-	.	.	8a/L	za-	za-	.	.	(8cc#X\L	za-	za-	.	.
!	!	!	!	!	!	!	!	!	!LO:SIC:s=8g#XJ	!	!	!	!	!	!	!	!	!
.	8bJ 8g#X\	.	.	.	.	.	.	.	(<8g#X/J	.	.	.	.	8b\J	.	.	.	.
.	4cc# 4a\	.	.	.	.	.	.	.	4a/)	.	.	.	.	4cc#\)	.	.	.	.
4AA/	4ee 4cc# 4gn\	.	.	4AA/	-kon	-kon	.	.	4gn/	-kon	-kon	.	.	4ee\	-kon	-kon	.	.
!	!	!	!	!	!	!	!	!	!LO:LB:g=original	!	!	!	!	!	!	!	!	!
=33	=33	=33	=33	=33	=33	=33	=33	=33	=33	=33	=33	=33	=33	=33	=33	=33	=33	=33
4AA/	8eeL 8cc#X 8g\	.	.	4AA/	sta-	sta-	.	.	4g/	ſta-	sta-	.	.	4ee\	sta-	sta-	.	.
.	8dd 8f#\	.	.	.	.	.	.	.	.	.	.	.	.	.	.	.	.	.
4D/	8dd 8b\	.	.	16D/	-ry	-ry	.	.	16f#/	-ry	-ry	.	.	16dd\	-ry	-ry	.	.
.	.	.	.	16r	.	.	.	.	16r	.	.	.	.	16r	.	.	.	.
.	8eeJ 8ccn\	.	.	8r	.	.	.	.	8r	.	.	.	.	8r	.	.	.	.
4r	4dd 4b\	.	.	4r	.	.	.	.	8cc\	ta-	ta-	.	.	8ee\	ta-	ta-	.	.
.	.	.	.	.	.	.	.	.	8b\	-ie-	-jem-	.	.	8dd\	-iem-	-jem-	.	.
!	!	!	!	!LO:LB:g=original	!	!	!	!	!	!	!	!	!	!	!	!	!	!
=34	=34	=34	=34	=34	=34	=34	=34	=34	=34	=34	=34	=34	=34	=34	=34	=34	=34	=34
4.D\	4cc 4a\	.	.	8D/	Ta-	ta-	.	.	(<4a/	-mni-	-ni-	.	.	(>4cc\	-ni-	-ni-	.	.
.	.	.	.	8D/	-iem-	-jem-	.	.	.	.	.	.	.	.	.	.	.	.
.	4a 4f#\	.	.	8D/L	-ni-	-ni-	.	.	4f#/)	.	.	.	.	4a\)	.	.	.	.
8C/L	.	.	.	8C/J	.	.	.	.	.	.	.	.	.	.	.	.	.	.
8BB/	8bL 8g\	.	.	8BB/	-cę	-cę	.	.	8g/	-cę	-cę	.	.	8b\	-cę	-cę	.	.
8AA/J	8ccJ 8a\	.	.	8AA/	co	co	.	.	8a/	co	co	.	.	8cc\	co	co	.	.
=35	=35	=35	=35	=35	=35	=35	=35	=35	=35	=35	=35	=35	=35	=35	=35	=35	=35	=35
2.GG/	4dd 4b\	.	.	2.GG/	grun-	grun-	.	.	4b/	grun-	grun-	.	.	4dd\	grun-	grun-	.	.
.	4b 4g\	.	.	.	.	.	.	.	4g/	-tem	-tem	.	.	4b\	-tem	-tem	.	.
.	8eeL 8cc\	.	.	.	.	.	.	.	8cc/	iest	jest	.	.	8ee\	iest	jest	.	.
.	8ddJ 8b\	.	.	.	.	.	.	.	8b/	Chry-	Chry-	.	.	8dd\	Chris-	Chry-	.	.
=36	=36	=36	=36	=36	=36	=36	=36	=36	=36	=36	=36	=36	=36	=36	=36	=36	=36	=36
4.D/	4cc 4a\	.	.	4D\	-tem	-tem	.	.	(<4a/	-stu-	-stu-	.	.	(>4cc\	-tus-	-stu-	.	.
.	4a 4f#\	.	.	8D\	iest	jest	.	.	4f#/	.	.	.	.	4a\	.	.	.	.
8C/L	.	.	.	8C/	Chrys-	Chry-	.	.	.	.	.	.	.	.	.	.	.	.
8BB/	8bL 8g\	.	.	8BB/	-tu-	-stu-	.	.	8g/)	.	.	.	.	8b\)	.	.	.	.
8AA/J	8ccJ 8a\	.	.	8AA/	-sa	-sa	.	.	8a/	-sa	-sa	.	.	8cc\	-sa	-sa	.	.
=37	=37	=37	=37	=37	=37	=37	=37	=37	=37	=37	=37	=37	=37	=37	=37	=37	=37	=37
2GG/	4dd 4b\	.	.	4GG/	wia-	wia-	.	.	4b/	wia-	wia-	.	.	4dd\	wia-	wia-	.	.
!	!	!	!	!	!	!	!	!	!	!	!	!	!	!LO:LB:g=original	!	!	!	!
.	4b 4g\	.	.	8GG/	-ry	-ry	.	.	8g/	-ry	-ry	.	.	8b\	-ry	-ry	.	.
.	.	.	.	8r	.	.	.	.	8r	.	.	.	.	8r	.	.	.	.
4G\	4b 4g\	.	.	4G\	Rę-	rę-	.	.	4g/	Rę-	rę-	.	.	4b\	Re-	rę-	.	.
!LO:LB:g=original	!LO:LB:g=original	!	!	!	!	!	!	!	!LO:LB:g=original	!	!	!	!	!	!	!	!	!
=38	=38	=38	=38	=38	=38	=38	=38	=38	=38	=38	=38	=38	=38	=38	=38	=38	=38	=38
2.G\	2.b 2.g/	.	.	4.G\	-koj-	-koj-	.	.	4.g/	-koj-	-koj-	.	.	4.b\	-koj-	-koj-	.	.
.	.	.	.	8G\	-mą.	-mią	.	.	8g/	-mią	-mią	.	.	8b\	-mią	-mią	.	.
!	!	!	!	!LO:LB:g=original	!	!	!	!	!	!	!	!	!	!	!	!	!	!
.	.	.	.	8G\	łas-	łas-	.	.	8g/	łas-	łas-	.	.	8b\	łas-	łas-	.	.
.	.	.	.	8G\	-ki	-ki	.	.	8g/	-ki	-ki	.	.	8b\	-ki	-ki	.	.
=39	=39	=39	=39	=39	=39	=39	=39	=39	=39	=39	=39	=39	=39	=39	=39	=39	=39	=39
2E\	2cc 2g\	.	.	4E\	Nie-	nie-	.	.	4g/	Nie-	nie-	.	.	4cc\	nie-	nie-	.	.
.	.	.	.	4E\	-bios	-bios	.	.	4g/	-bios	-bios	.	.	4cc\	-bios	-bios	.	.
4C\	4ee 4cc\	.	.	4C/	i	i	.	.	4cc\	i	i	.	.	4ee\	i	i	.	.
=40	=40	=40	=40	=40	=40	=40	=40	=40	=40	=40	=40	=40	=40	=40	=40	=40	=40	=40
*	*	*	*	*	*	*	*	*	*2\right	*	*	*	*	*	*	*	*	*
2.D\	2dd 2b\	.	.	2D\	świa-	świa-	.	.	2b\	ſwia-	świa-	.	.	2dd\	ſwia-	świa-	.	.
.	8ccL 8a\	.	.	8D\	-ta	-ta	.	.	8.a\	-ta	-ta	.	.	8cc\	-ta	-ta	.	.
.	8ddJ 8b\	.	.	8D\	zba-	zba-	.	.	.	.	.	.	.	8dd\	zba-	zba-	.	.
.	.	.	.	.	.	.	.	.	16b\	zba-	zba-	.	.	.	.	.	.	.
=41	=41	=41	=41	=41	=41	=41	=41	=41	=41	=41	=41	=41	=41	=41	=41	=41	=41	=41
4D\	4cc 4a\	.	.	4D\	-wie-	-wie-	.	.	4a/	-wie-	-wie-	.	.	4cc\	-wie-	-wie-	.	.
4G\	4b 4g\	.	.	8G\	-niem	-niem	.	.	8g/	-niem	-niem	.	.	8b\	-niem	-niem	.	.
.	.	.	.	8r	.	.	.	.	8r	.	.	.	.	8r	.	.	.	.
4G\	4b 4g\	.	.	4G\	Rę-	rę-	.	.	4g/	Rę-	rę-	.	.	4b\	Rę-	rę-	.	.
=42	=42	=42	=42	=42	=42	=42	=42	=42	=42	=42	=42	=42	=42	=42	=42	=42	=42	=42
4.G\	2b 2g\	.	.	4.G\	-koj-	-koj-	.	.	4.g/	-koj-	-koj-	.	.	4.b\	-koj-	-koj-	.	.
8Fn\L	.	.	.	8Fn\	-mią	-mią	.	.	8g/	-mą	-mią	.	.	8b\	-mą	-mią	.	.
8E\	8bL 8g/	.	.	8E\	łas-	łas-	.	.	8g/	łas-	łas-	.	.	8b\	łas-	łas-	.	.
8D\J	8bJ 8fn/	.	.	8D\	-ki	-ki	.	.	8fn/	-ki	-ki	.	.	8b\	-ki	-ki	.	.
=43	=43	=43	=43	=43	=43	=43	=43	=43	=43	=43	=43	=43	=43	=43	=43	=43	=43	=43
4C/	4cc 4e\	.	.	4C/	Nie-	nie-	.	.	4e/	nie-	nie-	.	.	4cc\	nie-	nie-	.	.
4E/	4cc 4g\	.	.	4E\	-bios	-bios	.	.	4g/	-bios	-bios	.	.	4cc\	-bios	-bios	.	.
!	!	!	!	!LO:LB:g=original	!	!	!	!	!LO:LB:g=original	!	!	!	!	!	!	!	!	!
4C/	4ee 4cc\	.	.	4C/	i	i	.	.	4cc\	i	i	.	.	4ee\	i	i	.	.
=44	=44	=44	=44	=44	=44	=44	=44	=44	=44	=44	=44	=44	=44	=44	=44	=44	=44	=44
[>2.D\	2dd 2b\	.	.	2D\	świa-	świa-	.	.	2b\	świa-	świa-	.	.	2dd\	ſwia-	świa-	.	.
.	8ccL 8a\	.	.	8D\	-ta	-ta	.	.	8a/	-ta	-ta	.	.	8cc\	-ta	-ta	.	.
.	8aJ 8f#X\	.	.	8D\	zba-	zba-	.	.	8f#X/	zba-	zba-	.	.	8a\	zba-	zba-	.	.
=45	=45	=45	=45	=45	=45	=45	=45	=45	=45	=45	=45	=45	=45	=45	=45	=45	=45	=45
4D\]	4a 4f#/	.	.	4D\	-wie-	-wie-	.	.	4f#/	-wie-	-wie-	.	.	4a/	-wie-	-wie-	.	.
4G\	4g/	.	.	4G\	-niem	-niem	.	.	4g/	-niem	-niem	.	.	4g/	-niem	-niem	.	.
4r	4r	.	.	4r	.	.	.	.	4r	.	.	.	.	4r	.	.	.	.
=46	=46	=46	=46	=46	=46	=46	=46	=46	=46	=46	=46	=46	=46	=46	=46	=46	=46	=46
2.D\	2.a 2.f# 2.c/	.	.	2.D\	a-	a-	.	.	2.f#/	a-	a-	.	.	2.a/	a-	a-	.	.
=47	=47	=47	=47	=47	=47	=47	=47	=47	=47	=47	=47	=47	=47	=47	=47	=47	=47	=47
4G\	4g 4B/	.	.	4G\	-men	-men	.	.	4g/	-men	-men	.	.	4g/	-[me]n	-men	.	.
4r	4r	.	.	4r	.	.	.	.	4r	.	.	.	.	4r	.	.	.	.
4r	4r	.	.	4r	.	.	.	.	4r	.	.	.	.	4r	.	.	.	.
!	!	!	!	!	!	!	!	!	!	!	!	!	!	!LO:LB:g=original	!	!	!	!
=48	=48	=48	=48	=48	=48	=48	=48	=48	=48	=48	=48	=48	=48	=48	=48	=48	=48	=48
2.c 2.D\	2.dd\ 2.a\ 2.f#\	.	.	2.D\	a-	a-	.	.	2.f#/	a-	a-	.	.	2.dd\	a-	a-	.	.
=49	=49	=49	=49	=49	=49	=49	=49	=49	=49	=49	=49	=49	=49	=49	=49	=49	=49	=49
4B 4G\	4g/	.	.	4G\	-men	-men	.	.	4g/	-men	-men	.	.	4g/	-[men]	-men	.	.
4r	4r	.	.	4r	.	.	.	.	4r	.	.	.	.	4r	.	.	.	.
4r	4r	.	.	4r	.	.	.	.	4r	.	.	.	.	4r	.	.	.	.
==	==	==	==	==	==	==	==	==	==	==	==	==	==	==	==	==	==	==
*-	*-	*-	*-	*-	*-	*-	*-	*-	*-	*-	*-	*-	*-	*-	*-	*-	*-	*-
!!!system-decoration: [(g1)]{(s4,s5)}
!!LO:MO:ori
!!!RDF**kern: > = above
!!!RDF**kern: < = below
!!LO:MO:end
!!!filter-modern: sic -sq | autostem -r | tie -s | shed -k -e "s/[<>]//g" | shed -e "s/LO:DY:(a|b|rj)/LO:dy:$1/L" | shed -e "s/^(\d+[\/\\]right)/$1yy/I; s/^(\d+[\/\\]left)/$1yy/I" | shed -e "s/:t=P:/:T=P:/L" | shed -e "s/yy//" | humtr -p | modori -m
!!!ENC: Tomasz Grochalski
!!!END: 2020-08-30
!!!EED: Jędrzej Mróz
!!!ESR: 2021-11-08
!!!ENC-modern: Marta Lawrence
!!!END-modern: 2022-07-06
